X:1
T:[ID 5-12]
T:[ID 5-12]
T:Bezeichnung standardisiert: Menuet [mit Trio] Menuet Con Trio
T:Urheber unbekannt Datum in der hier transkribierten schriftlichen Quelle: 1773
C:Urheber unbekannt
C:Datum in der hier transkribierten schriftlichen Quelle: 1773
L:1/8
M:3/4
K:G
V:1 treble 
V:1
 G,2 x2 g | C2 B,2 A,2 |: x6 | G,2 x2 g2 | x6 | x6 | x6 | x6 | x6 | x6 | x6 | x6 x6 | x6 | x6 | %14
 x6 | x6 | x6 | x6 | x6"^Trio" B,2 C2 D2 | B,2 C2 D2 | E2 EFGA | G2 FE D2 | F2 G2 A2 | F2 G2 A2 | %24
 ABcABG | A6 :: A4 B2 | Accccc | B4 c2 | Bddddd | e4 cA | d4 BG | ABBcdF | G6 :| %34

